cssgg/ethernet.svg

<svg
  width="24"
  height="24"
  viewBox="0 0 24 24"
  fill="none"
  xmlns="http://www.w3.org/2000/svg"
>
  <path
    fill-rule="evenodd"
    clip-rule="evenodd"
    d="M4 0.5V20.5H11V23.5H13V20.5H20V0.5H4ZM18 2.5H6V8.5H10V14.5H14V8.5H18V2.5ZM6 18.5V10.5H8V16.5H16V10.5H18V18.5H6Z"
    fill="currentColor"
  />
</svg>

<svg viewBox="0 0 24 24" xmlns="http://www.w3.org/2000/svg"><path fill-rule="evenodd" d="M4 .5v20h7v3h2v-3h7V.5H4Zm14 2H6v6h4v6h4v-6h4v-6Zm-12 16v-8h2v6h8v-6h2v8H6Z"/></svg>
